X: 0611
T: KEITH'S HORNPIPE
B: Oliver Ditson "The Boston Collection of Instrumental Music" 1910 p.61 #1
F: http://conquest.imslp.info/files/imglnks/usimg/8/8f/IMSLP175643-PMLP309456-bostoncollection00bost_bw.pdf
M: 2/4
L: 1/16
K: G
D2 |\
GBAG FDEF | GBAG FDEF | GFAG BAcB | AGFE D2EF |\
GBAG FDEF | GBAG FDEF | Ggfe dcBA | G2G2G2 :|
|: Bc |\
dBed c2AB | cAdc B2GA | BGcB AGFG | Ad^cd D2 B=c |\
dBed c2AB | cAdc B2GF | Eedc BAGF | G2G2G2 :|

%%sep 1 1 500
%%sep 1 1 500
